X: 16
T:Farewell To Low House. Car.16
T:
M:6/8
Q:100
S:CarlisleMS,Anon.c1812.AGG's transcription
R:Air
O:England
A:Carlisle
Z:vmp.Chris Partington
K:G
g|dBG G>AB|E2E E2c|AFD DEF|G2G G2g|!
dBG B>dd|E2E E2c|AFD DEF|G3 G2||!
g/a/|bgb afd|efg{fga}g>fe|dBg dBG|AFD D2g/a/|!
bgb afd|efg{fga}g>fe|faf ge^c|d2d de=(f|!
e).c.e (dB).d|cac BgB|Ace dBG|FAF DEF|!
GAB EFG|ABc de(f|g).d.B (cA).F|G3 G2
